svgs/duotone/file-check.svg

<svg xmlns="http://www.w3.org/2000/svg" viewBox="0 0 384 512"><!--! Font Awesome Pro 6.3.0 by @fontawesome - https://fontawesome.com License - https://fontawesome.com/license (Commercial License) Copyright 2023 Fonticons, Inc. --><defs><style>.fa-secondary{opacity:.4}</style></defs><path class="fa-primary" d="M256 0v128h128L256 0zM245.8 264.4l-79.13 92.34l-29.69-29.69c-9.375-9.375-24.56-9.375-33.94 0s-9.375 24.56 0 33.94l48 48c4.5 4.5 10.62 7.031 16.97 7.031c.3125 0 .625 0 .9062-.0313c6.688-.25 12.97-3.281 17.31-8.344l96-112c8.625-10.06 7.469-25.22-2.594-33.84C269.6 253.2 254.4 254.3 245.8 264.4z"/><path class="fa-secondary" d="M256 128V0H48C21.49 0 0 21.49 0 48v416C0 490.5 21.49 512 48 512h288c26.51 0 48-21.49 48-48V128H256zM282.2 295.6l-96 112c-4.344 5.062-10.62 8.094-17.31 8.344C168.6 415.1 168.3 415.1 168 415.1c-6.344 0-12.47-2.531-16.97-7.031l-48-48c-9.375-9.375-9.375-24.56 0-33.94s24.56-9.375 33.94 0l29.69 29.69l79.13-92.34c8.656-10.06 23.81-11.19 33.84-2.594C289.7 270.4 290.8 285.5 282.2 295.6z"/></svg>

<svg xmlns="http://www.w3.org/2000/svg" viewBox="0 0 384 512"><!-- Font Awesome Pro 6.0.0-alpha2 by @fontawesome - https://fontawesome.com License - https://fontawesome.com/license (Commercial License) --><defs><style>.fa-secondary{opacity:.4}</style></defs><path d="M256 128V0H48C21.49 0 0 21.492 0 48V464C0 490.508 21.49 512 48 512H336C362.51 512 384 490.508 384 464V128H256ZM282.219 295.609L186.219 407.609C181.875 412.672 175.594 415.703 168.906 415.953C168.625 415.984 168.312 415.984 168 415.984C161.656 415.984 155.531 413.453 151.031 408.953L103.031 360.953C93.656 351.578 93.656 336.391 103.031 327.016S127.594 317.641 136.969 327.016L166.656 356.703L245.781 264.359C254.438 254.297 269.594 253.172 279.625 261.766C289.688 270.391 290.844 285.547 282.219 295.609Z" class="fa-secondary"/><path d="M256 0V128H384L256 0ZM245.781 264.359L166.656 356.703L136.968 327.016C127.593 317.641 112.406 317.641 103.031 327.016S93.656 351.578 103.031 360.953L151.031 408.953C155.531 413.453 161.656 415.984 168 415.984C168.312 415.984 168.625 415.984 168.906 415.953C175.593 415.703 181.875 412.672 186.218 407.609L282.218 295.609C290.843 285.547 289.687 270.391 279.625 261.766C269.593 253.172 254.437 254.297 245.781 264.359Z" class="fa-primary"/></svg>
